Newaita-dark/apps/48/com.github.artemanufrij.findfileconflicts.svg

<svg height="48" viewBox="0 0 48 48" width="48" xmlns="http://www.w3.org/2000/svg" xmlns:xlink="http://www.w3.org/1999/xlink"><linearGradient id="a"><stop offset="0" stop-opacity=".313726"/><stop offset=".222222" stop-opacity=".27451"/><stop offset="1" stop-opacity="0"/></linearGradient><radialGradient id="b" cx="450.908936" cy="189.579361" gradientTransform="matrix(.00000026 -.117199 -.210958 -.00000015 66.784728 95.392994)" gradientUnits="userSpaceOnUse" r="21.166656" xlink:href="#a"/><radialGradient id="c" cx="450.908936" cy="189.579361" gradientTransform="matrix(-.00000026 .117199 .210958 .00000015 -19.155178 -11.291223)" gradientUnits="userSpaceOnUse" r="21.166656" xlink:href="#a"/><radialGradient id="d" cx="450.908936" cy="189.579361" gradientTransform="matrix(-.00000026 -.117199 .210958 -.00000015 -19.155178 95.392994)" gradientUnits="userSpaceOnUse" r="21.166656" xlink:href="#a"/><radialGradient id="e" cx="450.908936" cy="189.579361" gradientTransform="matrix(.00000026 .117199 -.210958 .00000015 66.784725 -11.291224)" gradientUnits="userSpaceOnUse" r="21.166656" xlink:href="#a"/><linearGradient id="f" gradientTransform="matrix(.0200401 0 0 .093759 18.698079 20.158175)" gradientUnits="userSpaceOnUse" x1="255.323059" x2="255.323044" y1="233.5" y2="254.666656"><stop offset="0" stop-opacity=".27451"/><stop offset="1" stop-opacity="0"/></linearGradient><linearGradient id="g" gradientUnits="userSpaceOnUse" x1="23.814786" x2="23.814786" y1="4.34415649995" y2="42.0509015"><stop offset="0" stop-color="#ff8a65"/><stop offset="1" stop-color="#ff7043"/></linearGradient><linearGradient id="h" gradientTransform="matrix(.0464536 .08046 -.08046 .0464536 14.655728 1.231306)" gradientUnits="userSpaceOnUse" x1="344.628418" x2="163.846085" y1="123.740433" y2="-57.04192"><stop offset="0" stop-color="#ffa726"/><stop offset="1" stop-color="#ffb74d"/></linearGradient><linearGradient id="i" gradientUnits="userSpaceOnUse" x1="23.814786" x2="23.814786" y1="42.0509005" y2="4.34415549995"><stop offset="0" stop-color="#424242"/><stop offset="1" stop-color="#616161"/></linearGradient><linearGradient id="j" gradientTransform="matrix(-.093759 0 0 .093759 47.629545 20.158174)" gradientUnits="userSpaceOnUse" x1="254" x2="254" y1="233.5" y2="-168.666672"><stop offset="0" stop-color="#bdbdbd"/><stop offset="1" stop-color="#e0e0e0"/></linearGradient><path d="m27.289062 42.050781h3.96875v-1.984375h-3.96875zm0 0" fill="url(#b)"/><path d="m20.339844 42.050781h-3.96875v1.984375h3.96875zm0 0" fill="url(#c)"/><path d="m20.339844 42.050781h-3.96875v-1.984375h3.96875zm0 0" fill="url(#d)"/><path d="m27.289062 42.050781h3.96875v1.984375h-3.96875zm0 0" fill="url(#e)"/><path d="m20.339844 41.554688h6.949218v2.480468h-6.949218zm0 0" fill="url(#f)"/><path d="m23.816406 4.34375c10.410156 0 18.851563 8.441406 18.851563 18.855469 0 10.410156-8.441407 18.851562-18.851563 18.851562-10.414062 0-18.855468-8.441406-18.855468-18.851562 0-10.414063 8.441406-18.855469 18.855468-18.855469zm0 0" fill="url(#g)"/><path d="m23.816406 42.050781c-10.445312 0-18.855468-8.410156-18.855468-18.851562 0-.0625 0-.125 0-.1875.101562 10.359375 8.472656 18.667969 18.855468 18.667969 10.382813 0 18.753906-8.308594 18.851563-18.667969v.1875c0 10.441406-8.410157 18.851562-18.851563 18.851562zm0 0" fill-opacity=".196078"/><path d="m23.816406 4.34375c-10.445312 0-18.855468 8.410156-18.855468 18.855469v.183593c.101562-10.359374 8.472656-18.667968 18.855468-18.667968 10.382813 0 18.753906 8.308594 18.851563 18.667968 0-.0625 0-.125 0-.183593 0-10.445313-8.410157-18.855469-18.851563-18.855469zm0 0" fill="#fff" fill-opacity=".392157"/><path d="m15.332031 28.089844c-.371093-.640625 3.296875-3.066406 3.144531-3.789063-.152343-.722656-4.492187-1.449219-4.414062-2.183593.078125-.734376 4.472656-.542969 4.769531-1.21875.300781-.675782-2.78125-3.8125-2.285156-4.359376.492187-.550781 3.9375 2.1875 4.574219 1.816407.640625-.367188-.007813-4.71875.714844-4.871094.722656-.152344 1.898437 4.085937 2.632812 4.160156.734375.078125 2.765625-3.824219 3.441406-3.523437.671875.300781-.867187 4.421875-.316406 4.917968.546875.492188 4.484375-1.46875 4.851562-.832031.371094.640625-3.296874 3.070313-3.144531 3.792969.15625.722656 4.492188 1.449219 4.414063 2.183594-.074219.734375-4.46875.542968-4.769532 1.214844-.300781.675781 2.78125 3.8125 2.289063 4.363281-.496094.550781-3.9375-2.1875-4.578125-1.820313-.640625.371094.011719 4.71875-.710938 4.875-.722656.152344-1.898437-4.085937-2.632812-4.164062-.738281-.078125-2.769531 3.824218-3.441406 3.523437-.675782-.300781.863281-4.417969.316406-4.914062-.550781-.496094-4.488281 1.46875-4.855469.828125zm0 0" fill="url(#h)"/><path d="m23.816406 4.203125c-10.523437 0-18.996094 8.472656-18.996094 18.996094 0 10.519531 8.472657 18.992187 18.996094 18.992187 10.519532 0 18.992188-8.472656 18.992188-18.992187 0-10.523438-8.472656-18.996094-18.992188-18.996094zm0 .28125c10.367188 0 18.710938 8.34375 18.710938 18.714844 0 10.367187-8.34375 18.710937-18.710938 18.710937-10.371094 0-18.714844-8.34375-18.714844-18.710937 0-10.371094 8.34375-18.714844 18.714844-18.714844zm0 0" fill="#212121"/><path d="m13.863281 14.269531c-.53125.011719-.964843.449219-.964843.988281v2.980469h-8.308594c-.40625 1.582031-.621094 3.246094-.621094 4.960938 0 1.710937.214844 3.375.621094 4.957031h8.308594v2.980469c0 .855469 1.011718 1.308593 1.648437.738281l8.933594-7.9375c.441406-.394531.441406-1.085938 0-1.480469l-8.933594-7.9375c-.171875-.15625-.398437-.246093-.628906-.25-.019531 0-.035157 0-.054688 0zm0 0" fill="url(#i)"/><path d="m33.765625 14.269531c-.019531 0-.035156 0-.050781 0-.234375.003907-.460938.09375-.632813.25l-8.929687 7.9375c-.445313.394531-.445313 1.085938 0 1.480469l8.929687 7.9375c.636719.570312 1.648438.117188 1.648438-.738281v-2.980469h8.308593c.40625-1.582031.621094-3.246094.621094-4.957031 0-1.714844-.214844-3.378907-.621094-4.960938h-8.308593v-2.980469c0-.539062-.433594-.976562-.964844-.988281zm0 0" fill="url(#j)"/><path d="m13.863281 14.269531c-.53125.011719-.964843.449219-.964843.988281v.742188c0-.539062.433593-.976562.964843-.988281h.054688c.230469.003906.457031.09375.628906.25l8.933594 7.9375c.117187.105469.203125.234375.257812.371093.152344-.375.066407-.824218-.257812-1.113281l-8.933594-7.9375c-.171875-.15625-.398437-.246093-.628906-.25-.019531 0-.035157 0-.054688 0zm-9.273437 3.96875c-.40625 1.582031-.621094 3.246094-.621094 4.960938 0 .121093 0 .246093.003906.371093.027344-1.585937.242188-3.121093.617188-4.589843h8.308594v-.742188zm0 0" fill="#efefef" fill-opacity=".313726"/><path d="m33.765625 14.269531c-.019531 0-.035156 0-.050781 0-.234375.003907-.460938.09375-.632813.25l-8.929687 7.9375c-.328125.289063-.414063.738281-.261719 1.113281.054687-.136718.140625-.265624.261719-.371093l8.929687-7.9375c.171875-.15625.398438-.246094.632813-.25h.050781c.53125.011719.964844.449219.964844.988281v-.742188c0-.539062-.433594-.976562-.964844-.988281zm.964844 3.96875v.742188h8.308593c.375 1.46875.589844 3.003906.617188 4.589843.003906-.125.003906-.25.003906-.371093 0-1.714844-.214844-3.378907-.621094-4.960938zm0 0" fill="#efefef"/><path d="m23.679688 23.695312c-.050782.089844-.117188.171876-.199219.246094l-8.933594 7.9375c-.636719.566406-1.648437.113282-1.648437-.742187v.992187c0 .855469 1.011718 1.308594 1.648437.742188l8.933594-7.9375c.359375-.324219.425781-.84375.199219-1.238282zm-18.0625 4.464844c.089843.332032.1875.664063.296874.992188h6.984376v-.992188zm0 0" fill-opacity=".235294"/><path d="m23.949219 23.695312c-.226563.394532-.160157.914063.203125 1.238282l8.929687 7.9375c.636719.566406 1.648438.113281 1.648438-.742188v-.992187c0 .855469-1.011719 1.308593-1.648438.742187l-8.929687-7.9375c-.082032-.074218-.148438-.15625-.203125-.246094zm10.78125 4.464844v.992188h6.984375c.109375-.328125.207031-.660156.296875-.992188zm0 0" fill-opacity=".235294"/><g fill="none" stroke="#212121" stroke-linecap="round" stroke-linejoin="round" stroke-opacity=".954839"><path d="m558.8443 575.22069c-21.415279.472396-38.893925 18.108508-38.893925 39.838717v120.146014h-334.928664c-16.37639 63.77344-25.03698 130.853652-25.03698 199.980913 0 68.969795 8.66059 136.050007 25.03698 199.823448h334.928664v120.146013c0 34.484898 40.783509 52.750871 66.45035 29.760939l360.123109-319.969461c17.793578-15.903994 17.793578-43.77535 0-59.679343l-360.123109-319.969462c-6.928472-6.298611-16.061459-9.920313-25.351911-10.077778-.787326 0-1.417187 0-2.204514 0zm0 0" stroke-width="11.338583" transform="scale(.0248071)"/><path d="m360.132276-62.8062c5.666125.124988 10.290684 4.791209 10.290684 10.54066v31.788631h88.616537c4.33292 16.873388 6.624368 34.621693 6.624368 52.911613 0 18.248258-2.291448 35.996563-6.624368 52.869952h-88.616537v31.788631c0 9.124128-10.790637 13.957-17.581655 7.874248l-95.240905-84.658582c-4.749546-4.207932-4.749546-11.582228 0-15.790159l95.240905-84.658582c1.833159-1.666508 4.249595-2.62475 6.749356-2.666412zm0 0" stroke-width="3" transform="matrix(.093759 0 0 .093759 0 20.158175)"/></g></svg>

<?xml version="1.0" encoding="UTF-8"?>
<svg xmlns="http://www.w3.org/2000/svg" xmlns:xlink="http://www.w3.org/1999/xlink" width="48px" height="48px" viewBox="0 0 48 48" version="1.1">
<defs>
<radialGradient id="radial0" gradientUnits="userSpaceOnUse" cx="450.908936" cy="189.579361" fx="450.908936" fy="189.579361" r="21.166656" gradientTransform="matrix(0.000000261256,-0.117199,-0.210958,-0.000000152308,66.784728,95.392994)">
<stop offset="0" style="stop-color:rgb(0%,0%,0%);stop-opacity:0.313726;"/>
<stop offset="0.222222" style="stop-color:rgb(0%,0%,0%);stop-opacity:0.27451;"/>
<stop offset="1" style="stop-color:rgb(0%,0%,0%);stop-opacity:0;"/>
</radialGradient>
<radialGradient id="radial1" gradientUnits="userSpaceOnUse" cx="450.908936" cy="189.579361" fx="450.908936" fy="189.579361" r="21.166656" gradientTransform="matrix(-0.000000261256,0.117199,0.210958,0.000000152308,-19.155178,-11.291223)">
<stop offset="0" style="stop-color:rgb(0%,0%,0%);stop-opacity:0.313726;"/>
<stop offset="0.222222" style="stop-color:rgb(0%,0%,0%);stop-opacity:0.27451;"/>
<stop offset="1" style="stop-color:rgb(0%,0%,0%);stop-opacity:0;"/>
</radialGradient>
<radialGradient id="radial2" gradientUnits="userSpaceOnUse" cx="450.908936" cy="189.579361" fx="450.908936" fy="189.579361" r="21.166656" gradientTransform="matrix(-0.000000261256,-0.117199,0.210958,-0.000000152308,-19.155178,95.392994)">
<stop offset="0" style="stop-color:rgb(0%,0%,0%);stop-opacity:0.313726;"/>
<stop offset="0.222222" style="stop-color:rgb(0%,0%,0%);stop-opacity:0.27451;"/>
<stop offset="1" style="stop-color:rgb(0%,0%,0%);stop-opacity:0;"/>
</radialGradient>
<radialGradient id="radial3" gradientUnits="userSpaceOnUse" cx="450.908936" cy="189.579361" fx="450.908936" fy="189.579361" r="21.166656" gradientTransform="matrix(0.000000261256,0.117199,-0.210958,0.000000152308,66.784725,-11.291224)">
<stop offset="0" style="stop-color:rgb(0%,0%,0%);stop-opacity:0.313726;"/>
<stop offset="0.222222" style="stop-color:rgb(0%,0%,0%);stop-opacity:0.27451;"/>
<stop offset="1" style="stop-color:rgb(0%,0%,0%);stop-opacity:0;"/>
</radialGradient>
<linearGradient id="linear0" gradientUnits="userSpaceOnUse" x1="255.323059" y1="233.5" x2="255.323044" y2="254.666656" gradientTransform="matrix(0.0200401,0,0,0.093759,18.698079,20.158175)">
<stop offset="0" style="stop-color:rgb(0%,0%,0%);stop-opacity:0.27451;"/>
<stop offset="1" style="stop-color:rgb(0%,0%,0%);stop-opacity:0;"/>
</linearGradient>
<linearGradient id="linear1" gradientUnits="userSpaceOnUse" x1="254" y1="-168.666672" x2="254" y2="233.5" gradientTransform="matrix(0.093759,0,0,0.093759,0,20.158175)">
<stop offset="0" style="stop-color:rgb(100%,54.11765%,39.607844%);stop-opacity:1;"/>
<stop offset="1" style="stop-color:rgb(100%,43.921569%,26.274511%);stop-opacity:1;"/>
</linearGradient>
<linearGradient id="linear2" gradientUnits="userSpaceOnUse" x1="344.628418" y1="123.740433" x2="163.846085" y2="-57.04192" gradientTransform="matrix(0.0464536,0.08046,-0.08046,0.0464536,14.655728,1.231306)">
<stop offset="0" style="stop-color:rgb(100%,65.490198%,14.901961%);stop-opacity:1;"/>
<stop offset="1" style="stop-color:rgb(100%,71.764708%,30.19608%);stop-opacity:1;"/>
</linearGradient>
<linearGradient id="linear3" gradientUnits="userSpaceOnUse" x1="254" y1="233.5" x2="254" y2="-168.666672" gradientTransform="matrix(0.093759,0,0,0.093759,0,20.158174)">
<stop offset="0" style="stop-color:rgb(25.882354%,25.882354%,25.882354%);stop-opacity:1;"/>
<stop offset="1" style="stop-color:rgb(38.039216%,38.039216%,38.039216%);stop-opacity:1;"/>
</linearGradient>
<linearGradient id="linear4" gradientUnits="userSpaceOnUse" x1="254" y1="233.5" x2="254" y2="-168.666672" gradientTransform="matrix(-0.093759,0,0,0.093759,47.629545,20.158174)">
<stop offset="0" style="stop-color:rgb(74.117649%,74.117649%,74.117649%);stop-opacity:1;"/>
<stop offset="1" style="stop-color:rgb(87.843138%,87.843138%,87.843138%);stop-opacity:1;"/>
</linearGradient>
</defs>
<g id="surface1">
<path style=" stroke:none;fill-rule:nonzero;fill:url(#radial0);" d="M 27.289062 42.050781 L 31.257812 42.050781 L 31.257812 40.066406 L 27.289062 40.066406 Z M 27.289062 42.050781 "/>
<path style=" stroke:none;fill-rule:nonzero;fill:url(#radial1);" d="M 20.339844 42.050781 L 16.371094 42.050781 L 16.371094 44.035156 L 20.339844 44.035156 Z M 20.339844 42.050781 "/>
<path style=" stroke:none;fill-rule:nonzero;fill:url(#radial2);" d="M 20.339844 42.050781 L 16.371094 42.050781 L 16.371094 40.066406 L 20.339844 40.066406 Z M 20.339844 42.050781 "/>
<path style=" stroke:none;fill-rule:nonzero;fill:url(#radial3);" d="M 27.289062 42.050781 L 31.257812 42.050781 L 31.257812 44.035156 L 27.289062 44.035156 Z M 27.289062 42.050781 "/>
<path style=" stroke:none;fill-rule:nonzero;fill:url(#linear0);" d="M 20.339844 41.554688 L 27.289062 41.554688 L 27.289062 44.035156 L 20.339844 44.035156 Z M 20.339844 41.554688 "/>
<path style=" stroke:none;fill-rule:nonzero;fill:url(#linear1);" d="M 23.816406 4.34375 C 34.226562 4.34375 42.667969 12.785156 42.667969 23.199219 C 42.667969 33.609375 34.226562 42.050781 23.816406 42.050781 C 13.402344 42.050781 4.960938 33.609375 4.960938 23.199219 C 4.960938 12.785156 13.402344 4.34375 23.816406 4.34375 Z M 23.816406 4.34375 "/>
<path style=" stroke:none;fill-rule:nonzero;fill:rgb(0%,0%,0%);fill-opacity:0.196078;" d="M 23.816406 42.050781 C 13.371094 42.050781 4.960938 33.640625 4.960938 23.199219 C 4.960938 23.136719 4.960938 23.074219 4.960938 23.011719 C 5.0625 33.371094 13.433594 41.679688 23.816406 41.679688 C 34.199219 41.679688 42.570312 33.371094 42.667969 23.011719 C 42.667969 23.074219 42.667969 23.136719 42.667969 23.199219 C 42.667969 33.640625 34.257812 42.050781 23.816406 42.050781 Z M 23.816406 42.050781 "/>
<path style=" stroke:none;fill-rule:nonzero;fill:rgb(100%,100%,100%);fill-opacity:0.392157;" d="M 23.816406 4.34375 C 13.371094 4.34375 4.960938 12.753906 4.960938 23.199219 C 4.960938 23.257812 4.960938 23.320312 4.960938 23.382812 C 5.0625 13.023438 13.433594 4.714844 23.816406 4.714844 C 34.199219 4.714844 42.570312 13.023438 42.667969 23.382812 C 42.667969 23.320312 42.667969 23.257812 42.667969 23.199219 C 42.667969 12.753906 34.257812 4.34375 23.816406 4.34375 Z M 23.816406 4.34375 "/>
<path style=" stroke:none;fill-rule:nonzero;fill:url(#linear2);" d="M 15.332031 28.089844 C 14.960938 27.449219 18.628906 25.023438 18.476562 24.300781 C 18.324219 23.578125 13.984375 22.851562 14.0625 22.117188 C 14.140625 21.382812 18.535156 21.574219 18.832031 20.898438 C 19.132812 20.222656 16.050781 17.085938 16.546875 16.539062 C 17.039062 15.988281 20.484375 18.726562 21.121094 18.355469 C 21.761719 17.988281 21.113281 13.636719 21.835938 13.484375 C 22.558594 13.332031 23.734375 17.570312 24.46875 17.644531 C 25.203125 17.722656 27.234375 13.820312 27.910156 14.121094 C 28.582031 14.421875 27.042969 18.542969 27.59375 19.039062 C 28.140625 19.53125 32.078125 17.570312 32.445312 18.207031 C 32.816406 18.847656 29.148438 21.277344 29.300781 22 C 29.457031 22.722656 33.792969 23.449219 33.714844 24.183594 C 33.640625 24.917969 29.246094 24.726562 28.945312 25.398438 C 28.644531 26.074219 31.726562 29.210938 31.234375 29.761719 C 30.738281 30.3125 27.296875 27.574219 26.65625 27.941406 C 26.015625 28.3125 26.667969 32.660156 25.945312 32.816406 C 25.222656 32.96875 24.046875 28.730469 23.3125 28.652344 C 22.574219 28.574219 20.542969 32.476562 19.871094 32.175781 C 19.195312 31.875 20.734375 27.757812 20.1875 27.261719 C 19.636719 26.765625 15.699219 28.730469 15.332031 28.089844 Z M 15.332031 28.089844 "/>
<path style=" stroke:none;fill-rule:nonzero;fill:rgb(12.941177%,12.941177%,12.941177%);fill-opacity:1;" d="M 23.816406 4.203125 C 13.292969 4.203125 4.820312 12.675781 4.820312 23.199219 C 4.820312 33.71875 13.292969 42.191406 23.816406 42.191406 C 34.335938 42.191406 42.808594 33.71875 42.808594 23.199219 C 42.808594 12.675781 34.335938 4.203125 23.816406 4.203125 Z M 23.816406 4.484375 C 34.183594 4.484375 42.527344 12.828125 42.527344 23.199219 C 42.527344 33.566406 34.183594 41.910156 23.816406 41.910156 C 13.445312 41.910156 5.101562 33.566406 5.101562 23.199219 C 5.101562 12.828125 13.445312 4.484375 23.816406 4.484375 Z M 23.816406 4.484375 "/>
<path style=" stroke:none;fill-rule:nonzero;fill:url(#linear3);" d="M 13.863281 14.269531 C 13.332031 14.28125 12.898438 14.71875 12.898438 15.257812 L 12.898438 18.238281 L 4.589844 18.238281 C 4.183594 19.820312 3.96875 21.484375 3.96875 23.199219 C 3.96875 24.910156 4.183594 26.574219 4.589844 28.15625 L 12.898438 28.15625 L 12.898438 31.136719 C 12.898438 31.992188 13.910156 32.445312 14.546875 31.875 L 23.480469 23.9375 C 23.921875 23.542969 23.921875 22.851562 23.480469 22.457031 L 14.546875 14.519531 C 14.375 14.363281 14.148438 14.273438 13.917969 14.269531 C 13.898438 14.269531 13.882812 14.269531 13.863281 14.269531 Z M 13.863281 14.269531 "/>
<path style=" stroke:none;fill-rule:nonzero;fill:url(#linear4);" d="M 33.765625 14.269531 C 33.746094 14.269531 33.730469 14.269531 33.714844 14.269531 C 33.480469 14.273438 33.253906 14.363281 33.082031 14.519531 L 24.152344 22.457031 C 23.707031 22.851562 23.707031 23.542969 24.152344 23.9375 L 33.082031 31.875 C 33.71875 32.445312 34.730469 31.992188 34.730469 31.136719 L 34.730469 28.15625 L 43.039062 28.15625 C 43.445312 26.574219 43.660156 24.910156 43.660156 23.199219 C 43.660156 21.484375 43.445312 19.820312 43.039062 18.238281 L 34.730469 18.238281 L 34.730469 15.257812 C 34.730469 14.71875 34.296875 14.28125 33.765625 14.269531 Z M 33.765625 14.269531 "/>
<path style=" stroke:none;fill-rule:nonzero;fill:rgb(93.725491%,93.725491%,93.725491%);fill-opacity:0.313726;" d="M 13.863281 14.269531 C 13.332031 14.28125 12.898438 14.71875 12.898438 15.257812 L 12.898438 16 C 12.898438 15.460938 13.332031 15.023438 13.863281 15.011719 C 13.882812 15.011719 13.898438 15.011719 13.917969 15.011719 C 14.148438 15.015625 14.375 15.105469 14.546875 15.261719 L 23.480469 23.199219 C 23.597656 23.304688 23.683594 23.433594 23.738281 23.570312 C 23.890625 23.195312 23.804688 22.746094 23.480469 22.457031 L 14.546875 14.519531 C 14.375 14.363281 14.148438 14.273438 13.917969 14.269531 C 13.898438 14.269531 13.882812 14.269531 13.863281 14.269531 Z M 4.589844 18.238281 C 4.183594 19.820312 3.96875 21.484375 3.96875 23.199219 C 3.96875 23.320312 3.96875 23.445312 3.972656 23.570312 C 4 21.984375 4.214844 20.449219 4.589844 18.980469 L 12.898438 18.980469 L 12.898438 18.238281 Z M 4.589844 18.238281 "/>
<path style=" stroke:none;fill-rule:nonzero;fill:rgb(93.725491%,93.725491%,93.725491%);fill-opacity:1;" d="M 33.765625 14.269531 C 33.746094 14.269531 33.730469 14.269531 33.714844 14.269531 C 33.480469 14.273438 33.253906 14.363281 33.082031 14.519531 L 24.152344 22.457031 C 23.824219 22.746094 23.738281 23.195312 23.890625 23.570312 C 23.945312 23.433594 24.03125 23.304688 24.152344 23.199219 L 33.082031 15.261719 C 33.253906 15.105469 33.480469 15.015625 33.714844 15.011719 C 33.730469 15.011719 33.746094 15.011719 33.765625 15.011719 C 34.296875 15.023438 34.730469 15.460938 34.730469 16 L 34.730469 15.257812 C 34.730469 14.71875 34.296875 14.28125 33.765625 14.269531 Z M 34.730469 18.238281 L 34.730469 18.980469 L 43.039062 18.980469 C 43.414062 20.449219 43.628906 21.984375 43.65625 23.570312 C 43.660156 23.445312 43.660156 23.320312 43.660156 23.199219 C 43.660156 21.484375 43.445312 19.820312 43.039062 18.238281 Z M 34.730469 18.238281 "/>
<path style=" stroke:none;fill-rule:nonzero;fill:rgb(0%,0%,0%);fill-opacity:0.235294;" d="M 23.679688 23.695312 C 23.628906 23.785156 23.5625 23.867188 23.480469 23.941406 L 14.546875 31.878906 C 13.910156 32.445312 12.898438 31.992188 12.898438 31.136719 L 12.898438 32.128906 C 12.898438 32.984375 13.910156 33.4375 14.546875 32.871094 L 23.480469 24.933594 C 23.839844 24.609375 23.90625 24.089844 23.679688 23.695312 Z M 5.617188 28.160156 C 5.707031 28.492188 5.804688 28.824219 5.914062 29.152344 L 12.898438 29.152344 L 12.898438 28.160156 Z M 5.617188 28.160156 "/>
<path style=" stroke:none;fill-rule:nonzero;fill:rgb(0%,0%,0%);fill-opacity:0.235294;" d="M 23.949219 23.695312 C 23.722656 24.089844 23.789062 24.609375 24.152344 24.933594 L 33.082031 32.871094 C 33.71875 33.4375 34.730469 32.984375 34.730469 32.128906 L 34.730469 31.136719 C 34.730469 31.992188 33.71875 32.445312 33.082031 31.878906 L 24.152344 23.941406 C 24.070312 23.867188 24.003906 23.785156 23.949219 23.695312 Z M 34.730469 28.160156 L 34.730469 29.152344 L 41.714844 29.152344 C 41.824219 28.824219 41.921875 28.492188 42.011719 28.160156 Z M 34.730469 28.160156 "/>
<path style="fill:none;stroke-width:11.338583;stroke-linecap:round;stroke-linejoin:round;stroke:rgb(12.941177%,12.941177%,12.941177%);stroke-opacity:0.954839;stroke-miterlimit:4;" d="M 558.8443 575.22069 C 537.429021 575.693086 519.950375 593.329198 519.950375 615.059407 L 519.950375 735.205421 L 185.021711 735.205421 C 168.645321 798.978861 159.984731 866.059073 159.984731 935.186334 C 159.984731 1004.156129 168.645321 1071.236341 185.021711 1135.009782 L 519.950375 1135.009782 L 519.950375 1255.155795 C 519.950375 1289.640693 560.733884 1307.906666 586.400725 1284.916734 L 946.523834 964.947273 C 964.317412 949.043279 964.317412 921.171923 946.523834 905.26793 L 586.400725 585.298468 C 579.472253 578.999857 570.339266 575.378155 561.048814 575.22069 C 560.261488 575.22069 559.631627 575.22069 558.8443 575.22069 Z M 558.8443 575.22069 " transform="matrix(0.0248071,0,0,0.0248071,0,0)"/>
<path style="fill:none;stroke-width:3;stroke-linecap:round;stroke-linejoin:round;stroke:rgb(12.941177%,12.941177%,12.941177%);stroke-opacity:0.954839;stroke-miterlimit:4;" d="M 360.132276 -62.8062 C 365.798401 -62.681212 370.42296 -58.014991 370.42296 -52.26554 L 370.42296 -20.476909 L 459.039497 -20.476909 C 463.372417 -3.603521 465.663865 14.144784 465.663865 32.434704 C 465.663865 50.682962 463.372417 68.431267 459.039497 85.304656 L 370.42296 85.304656 L 370.42296 117.093287 C 370.42296 126.217415 359.632323 131.050287 352.841305 124.967535 L 257.6004 40.308953 C 252.850854 36.101021 252.850854 28.726725 257.6004 24.518794 L 352.841305 -60.139788 C 354.674464 -61.806296 357.0909 -62.764538 359.590661 -62.8062 C 359.757312 -62.8062 359.923962 -62.8062 360.132276 -62.8062 Z M 360.132276 -62.8062 " transform="matrix(0.093759,0,0,0.093759,0,20.158175)"/>
</g>
</svg>
